X: 22
T: Pennknivsm\"ordaren
R:polska J
Z:hn-jp-73
D:V\"asen: Essence
Z:Henrik Norbeck <henrik.norbeck@mailbox.swipnet.SE>
M:3/4
L:1/16
Q:1/4=115
K:Am
| abag =fgfd e2e2 | c2ed cBA^G A2E2 | A^GAB c2d2 e2^f2 | d^cd^f aba^g e4 |
| abag =fgfd e2e2 | c2ed cBA^G A2E2 | A^GAB c2ce dcBA | ^GABG A8 :|
|: E2c2 E2c2 E2c2 | c2B2 =G2BB B2B2 | cBA^G ABcd e=fed | cdcB ABA^G E4 |
| E2c2 E2c2 E2c2 | c2B2 =G2BB B2B2 | cBA^G ABcd e=fed | cBA^G A8 :|
%%sep 1 1 500
